X:2197
T:George Green's College Hornpipe
O:england
M:4/4
L:1/8
Q:1/4=114
C:Trad
R:hornpipe
K:G
(3DEF|: G>BA>G F2 (3DEF|G>BA>G F2d2|c>BA>G F>DE>F|A>GF>E D2 (3DEF|
G>BA>G F2 (3DEF|G>BA>G F2d2|c>BA>G F>DE>F|1 G2 B2 G2 (3DEF \
:|2 G2B2 G2 G>A|
|: B2d2 B2d2|e>dc>B c4|c>BA>G F>DE>F|A>GF>E D2 (3DEF|
G>BA>G F2 (3DEF |G>BA>G F2d2|c>BA>G F>DE>F|1 G2B2 G2 GA :|2 G2 B2 G4||
